shader_type canvas_item;

uniform vec4 bg_color : hint_color = vec4(0.5, 0.5, 0.5, 1.0);
uniform vec4 stripe_color : hint_color = vec4(0.0, 0.0, 0.0, 0.0);
uniform float speed = 20.0;
uniform float stripe_width = 12.0;
uniform float slant = -0.26795; // tan(-15 degrees)
uniform vec2 rect_size = vec2(100.0, 50.0);

void fragment() {
    vec2 local_pos = UV * rect_size;
    float x_shifted = local_pos.x - local_pos.y * slant;
    x_shifted -= TIME * speed;
    float mod_val = mod(x_shifted, stripe_width * 2.0);
    
    if (mod_val < stripe_width) {
        COLOR = bg_color;
    } else {
        COLOR = stripe_color;
    }
}
